src/assets/img/stencil-logo-new.svg

<svg enable-background="new 0 0 916 220" viewBox="0 0 916 220" xmlns="http://www.w3.org/2000/svg"><path d="m277.9 134h33.2c.5 8.1 6.5 15.7 20.1 15.7 12.5 0 18.9-4.4 18.9-11.1 0-20.3-67.1-1.2-67.1-49.1 0-21.9 18.7-39.9 48.5-39.9 36.2 0 48.7 23.1 49.6 40.8h-31.6c-.7-7.6-6.5-14.5-18.2-14.5-10.6 0-16.6 5.1-16.6 11.8 0 20.3 66.9 0 66.9 49.6 0 21.7-18.5 38.8-51.2 38.8-38-.1-50.9-19.5-52.5-42.1z"/><path d="m424.5 52.3v-28.1h-32.8v149h32.8v-94.2h24.1v-26.7z"/><path d="m475.5 122.2c2.3 16.6 12.9 25.6 29.3 25.6 9.9 0 19.4-4.4 23.3-13.2h33c-7.2 24.5-29.3 41.3-57.2 41.3-35.8 0-60.9-26.3-60.9-63.4 0-35.8 24.9-63 60.7-63s60 27.2 60 63c0 5.3-.5 9.7-.5 9.7zm.4-23.5h54.9c-2.3-13.6-12.2-22.8-27.5-22.8-14.9 0-24.6 9-27.4 22.8z"/><path d="m606 67.1c5.5-10.4 18-17.5 36-17.5 29.1 0 44.5 19.4 44.5 48.2v75.4h-32.8v-71.8c0-14.1-6-23.8-20.5-23.8-15.9 0-24.7 10.2-24.7 26.3v69.2h-32.8v-120.8h30.3z"/><path d="m759.3 49.6c37.6 0 55.4 26.5 57.7 47.1h-33.7c-2.5-10.4-12.2-18-24.2-18-17.5 0-27.7 13.8-27.7 34.1s10.2 34.1 27.7 34.1c12 0 21.7-7.6 24.2-18h33.7c-2.3 20.5-20.1 47.1-57.7 47.1-35.1 0-60.7-27.2-60.7-63.2s25.6-63.2 60.7-63.2z"/><path d="m825.7 23.3c0-11.5 8.3-19.8 19.8-19.8s19.8 8.3 19.8 19.8-8.3 19.6-19.8 19.6c-11.4 0-19.8-8-19.8-19.6zm3.5 29h32.8v120.9h-32.8z"/><path d="m879.5 173.2v-162.1h32.8v162.1z"/><path d="m145.1 2.4h-67.6c-40.6 0-73.8 33.2-73.8 73.8v67.6c0 40.6 33.2 73.8 73.8 73.8h67.6c40.6 0 73.8-33.2 73.8-73.8v-67.6c0-40.6-33.2-73.8-73.8-73.8zm16.6 142.1c0 11.3-16.4 20.5-27.7 20.5h-45.4c-11.3 0-27.7-9.2-27.7-20.5v-1.1h100.8zm0-23.7h-73.1c-11.3 0-27.7-9.2-27.7-20.5v-1.1h73.1c11.3 0 27.7 9.2 27.7 20.5zm0-44.2h-100.8v-1.1c0-11.3 16.4-20.5 27.7-20.5h45.4c11.3 0 27.7 9.2 27.7 20.5z"/></svg>

<?xml version="1.0" encoding="utf-8"?>
<!-- Generator: Adobe Illustrator 22.0.1, SVG Export Plug-In . SVG Version: 6.00 Build 0)  -->
<svg version="1.1" id="Layer_1" xmlns="http://www.w3.org/2000/svg" xmlns:xlink="http://www.w3.org/1999/xlink" x="0px" y="0px"
	 viewBox="0 0 916 220" style="enable-background:new 0 0 916 220;" xml:space="preserve">
<g>
	<g>
		<path d="M277.9,134h33.2c0.5,8.1,6.5,15.7,20.1,15.7c12.5,0,18.9-4.4,18.9-11.1c0-20.3-67.1-1.2-67.1-49.1
			c0-21.9,18.7-39.9,48.5-39.9c36.2,0,48.7,23.1,49.6,40.8h-31.6c-0.7-7.6-6.5-14.5-18.2-14.5c-10.6,0-16.6,5.1-16.6,11.8
			c0,20.3,66.9,0,66.9,49.6c0,21.7-18.5,38.8-51.2,38.8C292.4,176,279.5,156.6,277.9,134z"/>
		<polygon points="424.5,52.3 424.5,24.2 391.7,24.2 391.7,173.2 424.5,173.2 424.5,79 448.6,79 448.6,52.3 		"/>
		<path d="M475.5,122.2c2.3,16.6,12.9,25.6,29.3,25.6c9.9,0,19.4-4.4,23.3-13.2h33c-7.2,24.5-29.3,41.3-57.2,41.3
			c-35.8,0-60.9-26.3-60.9-63.4c0-35.8,24.9-63,60.7-63s60,27.2,60,63c0,5.3-0.5,9.7-0.5,9.7H475.5z M475.9,98.7h54.9
			c-2.3-13.6-12.2-22.8-27.5-22.8C488.4,75.9,478.7,84.9,475.9,98.7z"/>
		<path d="M606,67.1c5.5-10.4,18-17.5,36-17.5c29.1,0,44.5,19.4,44.5,48.2v75.4h-32.8v-71.8c0-14.1-6-23.8-20.5-23.8
			c-15.9,0-24.7,10.2-24.7,26.3v69.2h-32.8V52.3H606V67.1z"/>
		<path d="M759.3,49.6c37.6,0,55.4,26.5,57.7,47.1h-33.7c-2.5-10.4-12.2-18-24.2-18c-17.5,0-27.7,13.8-27.7,34.1
			c0,20.3,10.2,34.1,27.7,34.1c12,0,21.7-7.6,24.2-18h33.7c-2.3,20.5-20.1,47.1-57.7,47.1c-35.1,0-60.7-27.2-60.7-63.2
			S724.2,49.6,759.3,49.6z"/>
		<path d="M825.7,23.3c0-11.5,8.3-19.8,19.8-19.8c11.5,0,19.8,8.3,19.8,19.8s-8.3,19.6-19.8,19.6C834.1,42.9,825.7,34.9,825.7,23.3z
			 M829.2,52.3H862v120.9h-32.8V52.3z"/>
		<path d="M879.5,173.2V11.1h32.8v162.1H879.5z"/>
	</g>
	<g>
		<path d="M145.1,2.4H77.5C36.9,2.4,3.7,35.6,3.7,76.2v67.6c0,40.6,33.2,73.8,73.8,73.8h67.6c40.6,0,73.8-33.2,73.8-73.8V76.2
			C218.9,35.6,185.7,2.4,145.1,2.4z M161.7,144.5c0,11.3-16.4,20.5-27.7,20.5H88.6c-11.3,0-27.7-9.2-27.7-20.5v-1.1h100.8V144.5z
			 M161.7,120.8H88.6c-11.3,0-27.7-9.2-27.7-20.5v-1.1H134c11.3,0,27.7,9.2,27.7,20.5V120.8z M161.7,76.6H60.9v-1.1
			C60.9,64.2,77.3,55,88.6,55H134c11.3,0,27.7,9.2,27.7,20.5V76.6z"/>
	</g>
</g>
</svg>
